ui/StatusQ/src/assets/img/icons/touch-id.svg

<svg fill="none" height="24" viewBox="0 0 24 24" width="24" xmlns="http://www.w3.org/2000/svg"><path d="m11.0894 21.5921c.3162.2308.7571.1198.9485-.2217.1795-.3203.0705-.7232-.2291-.9353-2.75473-1.9501-4.0388-5.177-4.0388-7.368 0-1.6464 1.095-2.8964 2.535-2.8964 1.515 0 2.625 1.0519 2.625 2.4848 0 2.2408 1.77 4.0091 4.02 4.0091 2.31 0 4.05-1.9817 4.05-4.6341 0-5.67074-4.65-10.0305-10.71-10.0305-2.25253 0-4.32949.63042-6.06546 1.81772-.37137.25399-.40299.77787-.0919 1.10292.27582.2882.72416.3145 1.05538.09219 1.45761-.97834 3.20976-1.48844 5.10198-1.48844 5.22 0 9.21 3.67378 9.21 8.50611 0 1.7988-1.065 3.0945-2.55 3.0945-1.425 0-2.535-1.0823-2.535-2.4695 0-2.3628-1.62-3.99392-3.96-3.99392-2.445 0-4.17 1.82932-4.17 4.40552 0 2.6718 1.65168 6.2236 4.8044 8.525zm-5.86444-1.3134c.23057.3696.73163.438 1.07049.1642.30716-.2481.36925-.69.16315-1.0267-1.19389-1.9511-1.9586-4.3363-1.9586-6.2577 0-3.68899 2.385-6.28045 5.79-6.28045 3.39 0 6 2.40854 6 5.56405 0 1.0518 1.485 1.0213 1.485 0 0-3.99393-3.27-7.10369-7.485-7.10369-4.23 0-7.29 3.2622-7.29 7.82009 0 2.2354.86032 4.9329 2.22496 7.1202zm10.92034-.3345c.4256.0362.7679-.3198.7596-.7469-.0082-.4229-.3581-.7545-.7788-.7979-2.9242-.3017-5.0261-2.5712-5.0261-5.5915 0-.5183-.255-.8079-.705-.8079-.48 0-.78.3049-.78.8079 0 3.8559 2.7647 6.8154 6.5303 7.1363z" fill="#000"/></svg>

<svg width="24" height="24" viewBox="0 0 24 24" fill="none" xmlns="http://www.w3.org/2000/svg">
<path d="M11.0894 21.5921C11.4056 21.8229 11.8465 21.7119 12.0379 21.3704C12.2174 21.0501 12.1084 20.6472 11.8088 20.4351C9.05407 18.485 7.77 15.2581 7.77 13.0671C7.77 11.4207 8.865 10.1707 10.305 10.1707C11.82 10.1707 12.93 11.2226 12.93 12.6555C12.93 14.8963 14.7 16.6646 16.95 16.6646C19.26 16.6646 21 14.6829 21 12.0305C21 6.35976 16.35 2 10.29 2C8.03747 2 5.96051 2.63042 4.22454 3.81772C3.85317 4.07171 3.82155 4.59559 4.13264 4.92064C4.40846 5.20884 4.8568 5.23514 5.18802 5.01283C6.64563 4.03449 8.39778 3.52439 10.29 3.52439C15.51 3.52439 19.5 7.19817 19.5 12.0305C19.5 13.8293 18.435 15.125 16.95 15.125C15.525 15.125 14.415 14.0427 14.415 12.6555C14.415 10.2927 12.795 8.66158 10.455 8.66158C8.01 8.66158 6.285 10.4909 6.285 13.0671C6.285 15.7389 7.93668 19.2907 11.0894 21.5921ZM5.22496 20.2787C5.45553 20.6483 5.95659 20.7167 6.29545 20.4429C6.60261 20.1948 6.6647 19.7529 6.4586 19.4162C5.26471 17.4651 4.5 15.0799 4.5 13.1585C4.5 9.46951 6.885 6.87805 10.29 6.87805C13.68 6.87805 16.29 9.28659 16.29 12.4421C16.29 13.4939 17.775 13.4634 17.775 12.4421C17.775 8.44817 14.505 5.33841 10.29 5.33841C6.06 5.33841 3 8.60061 3 13.1585C3 15.3939 3.86032 18.0914 5.22496 20.2787ZM16.1453 19.9442C16.5709 19.9804 16.9132 19.6244 16.9049 19.1973C16.8967 18.7744 16.5468 18.4428 16.1261 18.3994C13.2019 18.0977 11.1 15.8282 11.1 12.8079C11.1 12.2896 10.845 12 10.395 12C9.915 12 9.615 12.3049 9.615 12.8079C9.615 16.6638 12.3797 19.6233 16.1453 19.9442Z" fill="black"/>
</svg>
